X: 31
T:Gan Ainm
R:Slip Jig
M:9/8
S:Unknown fiddler
D:Session tape ?
H:Played after 30
Z:Bernie Stocks
K:G
B2E E2F G2A | Bcd e2c d2A | B2E E2F G2A | BdB A2F G2E :|
g2e e2d e2g | f2d d2c d2f | g2e e2d e2A | B2d A2F G2E :|
<end>
<start>
